X:1
T:There’s a Hand Held Out
T:There’s a Hand Held Out
T:John Robson Sweney
T:Myron W. Morse, 1889
T:Public Domain Courtesy of the Cyber Hymnal™
T:Public Domain Courtesy of the Cyber Hymnal™
C:John Robson Sweney
Z:Public Domain
Z:Courtesy of the Cyber Hymnal™
%%score ( 1 2 ) 3 ( 4 5 )
L:1/8
Q:1/4=115
M:4/4
K:F
V:1 treble 
V:2 treble 
V:3 treble 
V:4 bass 
V:5 bass 
V:1
 F>G | A4 A2 | (A2 G2) F2 | F2 E4- | E4 GA | B4 B2 | (B2 A2) G2 | c6- | c4 FG | A4 A2 | %10
w: 1.~There’s a|hand held|out * in|pi- ty,|* There’s a|hand held|out * in|love;|* It will|pi- lot|
w: 2.~Oh, how|gent- ly|will * it|lead us!|* Oh, how|ten- der|is * its|touch!|* ’Tis the|bless- èd|
w: 3.~Yes, ’tis|love to|me, * a|sin- ner,|* Prompts this|hand to|reach * so|low,|* Striv- ing|thus to|
w: 4.~Shall I,|to this|hand * ex-|tend- ed,|* Pay no|heed as|it * in-|vites?|* Shall my|Sav- ior|
w: 5.~Nay, I|would this|prof- * fered|hand take,|* Know- ing|that it|leads * a-|right;|* Yes, I|would this|
w: 6.~Then, as|hand in|hand * to-|ge- ther,|* With my|Sav- ior,|with * my|friend,|* With my|Christ, my|
 (A2 B2) c2 | c2 B4- | B4 AG | F4 F2 | (E2 A2) G2 | F6- | F4 ||"^Refrain" [FA][FB] | [Fc]4 [Fc]2 | %19
w: to * the|ci- ty,|* Where our|Fa- ther|dwells * a-|bove.||||
w: hand * of|Je- sus;|* We all|need it,|oh, * so|much!||||
w: be * the|win- ner,|* Ere I|reap what|I * shall|sow.||There’s a|hand held|
w: be * of-|fend- ed,|* Give I|not to|Him * His|rights?||||
w: lov- * ing|choice make;|* Trust- ing|in His|love * and|might.||||
w: el- * der|bro- ther,|* Let Him|lead till|life * shall|end.||||
 ([Ac]2 [GB]2) [FA]2 | [GB]6- | [GB]4 [EG][FA] | [GB]4 [GB]2 | ([GB]2 [FA]2) [EG]2 | [FA]6- | %25
w: ||||||
w: ||||||
w: out * to|you,|* There’s a|hand held|out * to|me,|
w: ||||||
w: ||||||
w: ||||||
 [FA]4 [FA][EG] | F4 F2 | (c2 B2) [FA]2 | [FB]6- | [FB]4 [DG]2 | [CF]2 [CF]2 [CF]2 | %31
w: ||||||
w: ||||||
w: * There’s a|hand that|will * prove|true,|* What-|ev- er our|
w: ||||||
w: ||||||
w: ||||||
 ([CE]2 [EA]2) [EG]2 | [CF]6- | [CF]4 |] %34
w: |||
w: |||
w: lot * shall|be.||
w: |||
w: |||
w: |||
V:2
 x2 | x6 | x6 | x6 | x6 | x6 | x6 | x6 | x6 | x6 | x6 | x6 | x6 | x6 | x6 | x6 | x4 || x2 | x6 | %19
 x6 | x6 | x6 | x6 | x6 | x6 | x6 | F4 F2 | F4 x2 | x6 | x6 | x6 | x6 | x6 | x4 |] %34
V:3
 z2 | z2 ([A,CF]2 [A,CF]2) | z2 ([A,CF]2 [A,CF]2) | z2 ([B,CE]2 [B,CE]2) | z2 ([B,CE]2 [B,CE]2) | %5
 z2 ([B,CE]2 [B,CE]2) | z2 ([B,CE]2 [B,CE]2) | z2 ([A,CF]2 [A,CF]2) | z2 ([A,CF]2 [A,CF]2) | %9
 z2 ([A,CF]2 [A,CF]2) | z2 ([A,C_EF]2 [A,CEF]2) | z2 ([B,DF]2 [B,DF]2) | z2 ([B,DF]2 [B,DF]2) | %13
 z2 ([A,CF]2 [A,CF]2) | z2 ([CA]2 [B,G]2) | ([A,F]6- | [A,F]4) || x2 | x6 | x6 | x6 | x6 | x6 | %23
 x6 | x6 | x6 | x6 | x6 | x6 | x6 | x6 | x6 | x6 | x4 |] %34
V:4
 z2 | F,,2 z4 | F,,2 z4 | G,,2 z4 | G,,2 z4 | C,2 z4 | C,2 z4 | A,,2 z4 | A,,2 z4 | F,,2 z4 | %10
w: |~|~|~|~|~|~|~|~|~|
 F,,2 z4 | B,,2 z4 | B,,2 z4 | C,2 z4 | C,,2 z4 | F,,2 C,2 A,,2 | F,,4 || [F,C][F,C] | %18
w: ~|~|~|~|~|~ ~ ~|~|~ ~|
 [F,A,]4 [F,A,]2 | [F,C]4 [F,C]2 | [C,C]4 [C,C]2 | [C,C]4 [C,C][C,C] | [C,C]4 [C,C]2 | %23
w: ~ ~|~ ~|~ to|you, ~ ~|~ ~|
 [C,C]4 [C,C]2 | [F,C]4 [F,C]2 | [F,C]4 C[B,C] | [A,C]4 [A,C]2 | _E2 D2 [F,C]2 | [B,,D]4 [B,,D]2 | %29
w: ~ ~|~ to|me, ~ ~|~ ~|~ ~ ~|~ prove|
 [B,,D]4 [B,,B,]2 | [B,,A,]2 [C,A,]2 [C,A,]2 | G,2 C2 [C,B,]2 | [F,A,]6- | [F,A,]4 |] %34
w: true, *|||||
V:5
 x2 | x6 | x6 | x6 | x6 | x6 | x6 | x6 | x6 | x6 | x6 | x6 | x6 | x6 | x6 | x6 | x4 || x2 | x6 | %19
 x6 | x6 | x6 | x6 | x6 | x6 | x4 C x | x6 | F,4 x2 | x6 | x6 | x6 | C,4 x2 | x6 | x4 |] %34

